ps/volume2.svg

<svg version="1.1" xmlns="http://www.w3.org/2000/svg" viewBox="0 0 32 32" height="1em" width="1em">
  <path d="M11.202 13.334v5.331h4.372l3.625 3.625v-12.581l-3.625 3.625h-4.372zM16.328 14.088l1.805-1.805v7.433l-2.117-2.117h-3.747v-3.199h3.747l0.312-0.312z" fill="#000000"/>
  <path d="M16 2.672c-7.361 0-13.328 5.968-13.328 13.328s5.968 13.328 13.328 13.328c7.361 0 13.328-5.967 13.328-13.328s-5.967-13.328-13.328-13.328zM16 28.262c-6.761 0-12.262-5.501-12.262-12.262s5.5-12.262 12.262-12.262c6.761 0 12.262 5.501 12.262 12.262s-5.5 12.262-12.262 12.262z" fill="#000000"/>
</svg>

<svg xmlns="http://www.w3.org/2000/svg" viewBox="0 0 32 32" height="1em" width="1em">
  <path d="M11.202 13.334v5.331h4.372l3.625 3.625V9.709l-3.625 3.625h-4.372zm5.126.754 1.805-1.805v7.433l-2.117-2.117h-3.747V14.4h3.747l.312-.312z"/>
  <path d="M16 2.672C8.639 2.672 2.672 8.64 2.672 16S8.64 29.328 16 29.328c7.361 0 13.328-5.967 13.328-13.328S23.361 2.672 16 2.672zm0 25.59C9.239 28.262 3.738 22.761 3.738 16S9.238 3.738 16 3.738c6.761 0 12.262 5.501 12.262 12.262S22.762 28.262 16 28.262z"/>
</svg>
